X: 8
T: Mrs Mary Stoker
C: Muriel Johnstone 1987
P: Tune for "The Isle of Tiree"
B: Roy Goldring "14 Social Dances for 2000"
R: strathspey
Z: 2015 John Chambers <jc:trillian.mit.edu>
N: The C chords in bars 7 and 15 aren't in the score, but implied by a C in the bass part.
M: C
L: 1/8
K: G
Bc ||\
"G"d2 g>d B<G G>B | "Am"c>B AG "C"E2 "D7"D2 |\
"G"D>E GA B2 Bd | "C"(3efg "G"d>B "D7"A2 d2 |
"G"d2 g>d "Em"B<G G>B | "Am"c>B AG "C"E2 EG |\
"G"D>E GA B2 "C"(3gfe | "G"d<B "D7"A>G "G"G2 |]
G>F |\
"C"E2 (3EFG "G"D2 D<G | "Am"A>G "D7"AB "G"d3 e |\
"Bm"d2 BA "Em"G2 G<B | "Am"c>B AG "C"E2 "D7"D2 |
"G"d2 g>d "G7"B<G G>B | "C"c>B AG "Am"E2 EG |\
"G"D>E GA B2 "C"(3gfe | "G"d<B "D7"A>G "G"G2 |]

%%sep 1 1 500
%%sep 1 1 500

